X:56
T:Sárgát virágzik a repce
M:4/4
L:1/4
K:D
D2 A,2 | FAGF | E2 A, z |
D2 A,2 | FAGF | E2 A, z |
A F B A | D>F G<F | E2 A,2 |
E E/F/ G<G | F F/F/ G<E | D2 D z |

